X:10901
T:Miss Kitty Campbell's Strathspey. WM.127
M:C
L:1/8
Q:160
S:Wm.Mittell's MS,New Romney,Kent,1799
R:Strathspey
O:England
A:Kent
N:
D:
H:
Z:vmp.Chris Partington
W:
K:F
C|F<FAF cFAF|E>F G/F/E/F/ GCCD|F<FAF cFAF|Ff a/g/f/e/ fFF:|!
|f|cf a/g/f cf ~f2|dg b/a/g dg ~g2|cf a/g/f cf ~f2|dfbg affa|!
cf a/g/f cf ~f2|dg b/a/g dg g2|afge f<dcA|cfbg aff|]
